X: 20522
M: 6/8
L: 1/8
K: G
E2E D2D | D2B G2B | d2^c d2A | c2E G2D |
E2E D2G | D2B G2B | d2^c d2A | c2E G2D |\


